client/public/assets/icons/utility/inbox.svg

<?xml version="1.0"?><svg xmlns="http://www.w3.org/2000/svg" width="52" height="52" viewBox="0 0 52 52"><path fill="#fff" d="m50 8c0-2.2-1.8-4-4-4h-40c-2.2 0-4 1.8-4 4v36c0 2.2 1.8 4 4 4h40c2.2 0 4-1.8 4-4v-36z m-31 27c0 0.6-0.4 1-1 1h-9c-0.6 0-1-0.4-1-1v-4c0-0.6 0.4-1 1-1h9c0.6 0 1 0.4 1 1v4z m0-10c0 0.6-0.4 1-1 1h-9c-0.6 0-1-0.4-1-1v-4c0-0.6 0.4-1 1-1h9c0.6 0 1 0.4 1 1v4z m0-10c0 0.6-0.4 1-1 1h-9c-0.6 0-1-0.4-1-1v-4c0-0.6 0.4-1 1-1h9c0.6 0 1 0.4 1 1v4z m25 26c0 0.6-0.4 1-1 1h-19c-0.6 0-1-0.4-1-1v-30c0-0.6 0.4-1 1-1h19c0.6 0 1 0.4 1 1v30z"></path></svg>

<?xml version="1.0" encoding="utf-8"?>
<!-- Generator: Adobe Illustrator 18.1.1, SVG Export Plug-In . SVG Version: 6.00 Build 0)  -->
<svg version="1.1" id="Layer_1" xmlns="http://www.w3.org/2000/svg" xmlns:xlink="http://www.w3.org/1999/xlink" x="0px" y="0px"
	 width="52px" height="52px" viewBox="0 0 52 52" enable-background="new 0 0 52 52" xml:space="preserve">
<path fill="#FFFFFF" d="M50,8c0-2.2-1.8-4-4-4H6C3.8,4,2,5.8,2,8v36c0,2.2,1.8,4,4,4h40c2.2,0,4-1.8,4-4V8z M19,35c0,0.6-0.4,1-1,1
	H9c-0.6,0-1-0.4-1-1v-4c0-0.6,0.4-1,1-1h9c0.6,0,1,0.4,1,1V35z M19,25c0,0.6-0.4,1-1,1H9c-0.6,0-1-0.4-1-1v-4c0-0.6,0.4-1,1-1h9
	c0.6,0,1,0.4,1,1V25z M19,15c0,0.6-0.4,1-1,1H9c-0.6,0-1-0.4-1-1v-4c0-0.6,0.4-1,1-1h9c0.6,0,1,0.4,1,1V15z M44,41c0,0.6-0.4,1-1,1
	H24c-0.6,0-1-0.4-1-1V11c0-0.6,0.4-1,1-1h19c0.6,0,1,0.4,1,1V41z"/>
</svg>
